X: 243
T: A Lament For A Friend
R: barndance
M: 4/4
K: Eminor
|:EG|B2 AF E2 FE|DD- DF A2 ^GA|B2 AF E<e- ef/e/|d<D- DF A2 D/E/F/A/|
B2 AF E2- EF/E/|DD- DF A2- A^G/A/|B<e- eg/f/ dc- cd/F/|BE- E^D E2:|
|:c>A|Be- eg/f/ ec- cc/A/|BE- EG/F/ D2 D/E/F/A/|B<e- ea/g/ fd- dd/c/|Be- e>^d e2- ed/c/|
B2- BA/G/ F<D- Dc/A/|B2 AF D2- D2|B<e b/a/g/f/ d<c- cd/F/|BE- E^D E2:|

